X:1
T: The Belles of Liscarroll
C:
R:Jig
Q:180
K:C
M:6/8
L:1/16
c4c2 def2d2|e2c2A2 G2E2D2|c4c2 dcA2F2|G2E2E2 G2A2B2|c4c2 def2d2|e2c2A2 A2B2c2|d2^c2A2 G2E2A2|D2E2D2 D2^F2A2|
c4c2 def2d2|e2c2A2 G2E2D2|c4c2 dcA2F2|G2E2E2 G2A2B2|c4c2 def2d2|e2c2A2 A2B2c2|d2^c2A2 G2E2A2|D2E2D2 dcA2G2||
K:D
F4F2 D2G2G2|D2F2A2 G2F2E2|D2F2F2 D2F2A2|B2G2E2 E2A2G2|F4F2 G4G2|A2G2A2 fed2f2|e2c2A2 G2E2A2|D2F2A2 dcA2G2|
F4F2 D2G2G2|D2F2A2 G2F2E2|D2F2F2 D2F2A2|B2G2E2 E2A2G2|F4F2 G4G2|A2G2A2 fed2f2|e2c2A2 G2E2A2|D2E2D2 D2B2c2|
d4d2 D2F2A2|G4G2 E2F2A2|B2c2d2 D2F2A2|B2G2E2 E2F2A2|d2f2d2 c2e2c2|Bcd2B2 A2F2D2|D2F2A2 D2d2B2|A2B2G2 F2E2D2|
d4d2 D2F2A2|G4G2 E2F2A2|B2c2d2 D2F2A2|B2G2E2 E2F2A2|d2f2d2 c2e2c2|Bcd2B2 A2F2D2|D2F2A2 D2d2B2|A2B2G2 F2E2D2||
